X: 28
T:Ladies Pleasure, Fieldtown
M:6/8
L:1/8
A:Fieldtown
P:AAB(CB)2
K:G
Q:240
P:A
|:g|gfe edc|BcA G2D|(2G/A/B/c/ (2d/e/d/c/|B2A G2:|
P:B
A|Bcd d2G|Bcd d2G|  Bcd        edc     |BcA G2g|
gfe edc|BcA G2D|(2G/A/B/c/ (2d/e/d/c/|B2A G2 |
P:C
|:g|(2gf e3|(2ed c3|\
(2Bc A3|G3   D3|(2G/A/B/c/ (2d/e/d/c/|B2A G2:|
